X: 942
M: C
L: 1/8
K: D
V: 1
|:\
|:\
d>edf d/d/d dA | BAdA F/F/F FD | e>fef e/e/e ef | gfed B/B/B (TBA) |
d3f d/d/d dA | BAdA F/F/F FD | G/G/G GB F/F/F FA | EFGA TB2 (A/B/d) :|
V: 2 clef=bass middle=d
|:\
d2d2 d2d2 | d2d2 d2d2 | e2e2 e2e2 | e2e2 e2e2 |\
d2d2 d2d2 |
d2d2 d2d2 | g2g2 d2d2 | e2e2 e2e2 :|\
|:\
d2d2 d2d2 | d2d2 d2d2 | e2e2 e2e2 |
e2e2 e2e2 |\
d2d2 d2d2 | d2d2 d2d2 | g2g2 f2f2 | e2e2 e2e2 :|

